src/images/social-icons.svg

<svg width="200" height="40" viewBox="0 0 200 40" fill="none" xmlns="http://www.w3.org/2000/svg">
<g id="Group 36">
<g id="Group 35">
<rect id="Rectangle 38" x="158" width="42" height="40" rx="5" fill="#2B2B2B"/>
<path id="Vector" d="M191 11.0101C190.042 11.6855 188.982 12.2022 187.86 12.5401C187.258 11.8476 186.457 11.3567 185.567 11.134C184.677 10.9112 183.739 10.9673 182.882 11.2945C182.025 11.6218 181.288 12.2045 180.773 12.9638C180.258 13.7231 179.988 14.6224 180 15.5401V16.5401C178.243 16.5856 176.501 16.1959 174.931 15.4055C173.361 14.6151 172.01 13.4487 171 12.0101C171 12.0101 167 21.0101 176 25.0101C173.941 26.408 171.487 27.109 169 27.0101C178 32.0101 189 27.0101 189 15.5101C188.999 15.2315 188.972 14.9537 188.92 14.6801C189.941 13.6735 190.661 12.4028 191 11.0101Z" stroke="white" stroke-linecap="round" stroke-linejoin="round"/>
</g>
<g id="Group 34">
<rect id="Rectangle 37" x="79" width="42" height="40" rx="5" fill="#2B2B2B"/>
<g id="Group 32">
<path id="Vector_2" d="M105 10H95C92.2386 10 90 12.2386 90 15V25C90 27.7614 92.2386 30 95 30H105C107.761 30 110 27.7614 110 25V15C110 12.2386 107.761 10 105 10Z" stroke="white" stroke-linecap="round" stroke-linejoin="round"/>
<path id="Vector_3" d="M104 19.3703C104.123 20.2025 103.981 21.0525 103.593 21.7993C103.206 22.5461 102.593 23.1517 101.841 23.53C101.09 23.9082 100.238 24.0399 99.4075 23.9062C98.5768 23.7726 97.8095 23.3804 97.2145 22.7855C96.6196 22.1905 96.2274 21.4232 96.0938 20.5925C95.9601 19.7619 96.0918 18.9102 96.47 18.1587C96.8483 17.4072 97.4539 16.794 98.2007 16.4065C98.9475 16.019 99.7975 15.8769 100.63 16.0003C101.479 16.1262 102.265 16.5218 102.871 17.1286C103.478 17.7355 103.874 18.5214 104 19.3703Z" stroke="white" stroke-linecap="round" stroke-linejoin="round"/>
<path id="Vector_4" d="M105.5 14.5H105.51" stroke="white" stroke-linecap="round" stroke-linejoin="round"/>
</g>
</g>
<g id="Group 33">
<rect id="Rectangle 36" width="42" height="40" rx="5" fill="#2B2B2B"/>
<path id="Vector_5" d="M28 7H24.1818C22.4941 7 20.8755 7.65848 19.682 8.83058C18.4886 10.0027 17.8182 11.5924 17.8182 13.25V17H14V22H17.8182V32H22.9091V22H26.7273L28 17H22.9091V13.25C22.9091 12.9185 23.0432 12.6005 23.2819 12.3661C23.5205 12.1317 23.8443 12 24.1818 12H28V7Z" stroke="white" stroke-linecap="round" stroke-linejoin="round"/>
</g>
</g>
</svg>

<svg xmlns="http://www.w3.org/2000/svg" width="200" height="40" fill="none"><rect width="42" height="40" x="158" fill="#2B2B2B" rx="5"/><path stroke="#fff" stroke-linecap="round" stroke-linejoin="round" d="M191 11.01a10.908 10.908 0 0 1-3.14 1.53 4.48 4.48 0 0 0-7.86 3v1a10.66 10.66 0 0 1-9-4.53s-4 9 5 13a11.64 11.64 0 0 1-7 2c9 5 20 0 20-11.5a4.532 4.532 0 0 0-.08-.83 7.716 7.716 0 0 0 2.08-3.67Z"/><rect width="42" height="40" x="79" fill="#2B2B2B" rx="5"/><g stroke="#fff" stroke-linecap="round" stroke-linejoin="round"><path d="M105 10H95a5 5 0 0 0-5 5v10a5 5 0 0 0 5 5h10a5 5 0 0 0 5-5V15a5 5 0 0 0-5-5Z"/><path d="M104 19.37a4 4 0 1 1-7.913 1.172A4 4 0 0 1 104 19.37ZM105.5 14.5h.01"/></g><rect width="42" height="40" fill="#2B2B2B" rx="5"/><path stroke="#fff" stroke-linecap="round" stroke-linejoin="round" d="M28 7h-3.818a6.423 6.423 0 0 0-4.5 1.83 6.194 6.194 0 0 0-1.864 4.42V17H14v5h3.818v10h5.091V22h3.818L28 17h-5.09v-3.75c0-.332.133-.65.372-.884.238-.234.562-.366.9-.366H28V7Z"/></svg>
